X:1
T:ASF/VOFO Wer uns getraut
T:ASF/VOFO Wer uns getraut
T:Fra Der Zigeunerbaron
T:Johann Strauss d.y.
C:Johann Strauss (sønn)
%%score [ 1 2 3 4 ]
L:1/8
Q:1/4=50
M:3/4
K:Eb
V:1 treble nm="Sopran"
V:2 treble nm="Alt"
V:3 treble-8 nm="Tenor"
V:4 bass nm="Bass"
V:1
"^Langsam\n""^A" z2 z2 z G | c2 B3/2 B/ (3A G F | E E/ E/ E z z2 ||[M:6/8]"^B" z2 z z2 G | G6 | %5
w: 1.Der|Dom- pfaff, der hat sie ge-|traut, ja, ja, ja,|Die|Lie-|
w: 2.Zwei|Stör- che, sie klap- per- ten|laut, ja, ja, ja,|||
 F3 D3 | E6 | E6 | G3 F2 F | E6 | D3 F3 |1 E3- E z z :|2 E6- || E6- | E2 z z2 z |] %15
w: be, die|Lie-|be|ist ei- ne|Him-|* mels-|macht! _|macht!|_||
w: ||||||||||
V:2
 z2 z2 z G | c2 B3/2 B/ (3A G F | E E/ E/ E z z2 ||[M:6/8] z2 z z2 E | E6 | D3 D3 | E6 | E6 | %8
w: 1.Der|Dom- pfaff, der hat sie ge-|traut, ja, ja, ja,|Die|Lie-|be, die|Lie-|be|
w: 2.Zwei|Stör- che, sie klap- per- ten|laut, ja, ja, ja,||||||
 G3 F2 F | E6 | D3 F3 |1 E3- E z z :|2 E6- || E6- | E2 z z2 z |] %15
w: ist ei- ne|Him-|* mels-|macht! _|macht!|_||
w: |||||||
V:3
 z2 z2 z G | c2 B3/2 B/ (3A G F | E B/ B/ B z z2 ||[M:6/8] z2 z z2 B | B6 | B3 A3 | G6 | G6 | %8
w: 1.Der|Dom- pfaff, der hat sie ge-|traut, ja, ja, ja,|Die|Lie-|be, die|Lie-|be|
w: 2.Zwei|Stör- che, sie klap- per- ten|laut, ja, ja, ja,||||||
 c3 c2 c | G6 | A3 A3 |1 G3- G z z :|2 G6- || G6- | G2 z z2 z |] %15
w: ist ei- ne|Him-|* mels-|macht! _|macht!|_||
w: |||||||
V:4
 z2 z2 z G, | C2 B,3/2 B,/ (3A, G, F, | E, G,/ G,/ G, z z2 ||[M:6/8] z2 z z2 E, | E,6 | B,,3 B,,3 | %6
w: 1.Der|Dom- pfaff, der hat sie ge-|traut, ja, ja, ja,|Die|Lie-|be, die|
w: 2.Zwei|Stör- che, sie klap- per- ten|laut, ja, ja, ja,||||
 E,6 | G,6 | A,3 A,2 A, | B,,6 | B,,3 B,,3 |1 E,3- E, z z :|2 E,6- || E,6- | E,2 z z2 z |] %15
w: Lie-|be|ist ei- ne|Him-|* mels-|macht! _|macht!|_||
w: |||||||||

